X:1
T:Title
%%score { 1 | 2 }
L:1/8
M:3/4
K:Eb
V:1 treble nm="Grand Piano"
V:2 bass 
V:1
 z2 z[Q:1/4=85] G G>[FA] | [GB]3 [Ac] [GB]>[EG] | [DF]3 [DF] [DF]>[EG] | [FA]3 [Fd] [Ec]>[DB] | %4
[M:3/8] G3 | GG>[FA] |[M:3/4] [GB]3 [EG] [EA]>[EB] | [Ec]3 [Ee] [Ed]>[Ec] | [EB]3 [EG] [DG]>[DF] | %9
[M:3/8] E3 | GG>[FA] |[M:3/4] [GB]3 [Ge] [Ad]>[Ac] | [GB]3 [EG] [DF]>[EG] | [FA]3 [Ac] [GB]>[FA] | %14
[M:3/8] G3 | EG>[FA] |[M:3/4] [GB]3 [EG] [EA]>[EB] | [Ec]3 [Ee] [Ed]>[Ec] | %18
 [EB]3 [EG] [DG]>[DF][Q:1/4=82][Q:1/4=80][Q:1/4=77][Q:1/4=74][Q:1/4=72][Q:1/4=69][Q:1/4=66] | %19
[M:3/8] E3 |] %20
V:2
 z2 z [E,B,E] [E,B,E]>[E,B,] | [E,E]3 [E,E] [E,E]>[E,B,] | [B,,B,]3 [B,,B,] [B,,B,]>[B,,B,] | %3
 [B,,B,]3 [B,,B,] [B,,B,]>[B,,B,] |[M:3/8] [E,B,E]3 | [E,B,E][E,B,E]>[E,B,] | %6
[M:3/4] [E,B,]3 [_D,B,] [C,A,]>[B,,G,] | [A,,A,]3 [A,,C] [A,,B,]>[A,,A,] | %8
 [B,,G,]3 [B,,B,] [B,,B,]>[B,,A,] |[M:3/8] [E,G,]3 | [E,B,E][E,B,E]>[E,B,] | %11
[M:3/4] [E,E]3 [E,B,] [E,C]>[E,E] | [E,E]3 [E,B,] [B,,B,]>[B,,B,] | %13
 [B,,B,]3 [B,,B,] [B,,B,]>[B,,B,] |[M:3/8] [E,B,E]3 | [E,G,][E,B,E]>[E,B,] | %16
[M:3/4] [E,B,]3 [_D,B,] [C,A,]>[B,,G,] | [A,,A,]3 [A,,C] [A,,B,]>[A,,A,] | %18
 [B,,G,]3 [B,,B,] [B,,B,]>[B,,A,] |[M:3/8] [E,G,]3 |] %20

